X: 14696
T: Gan Ainm
R: polka
M: 2/4
K: Bminor
de/d/ BA|Bd Bc/B/|AB df|e/f/e/d/ BA|
de/d/ BA|Bd e2-|ed ef/g/|ba/f/ af/e/||
de/d/ BA|Bd Bc/B/|AB df|e/f/e/d/ BA|
de/d/ BA|Bd e2-|ed ef|af ad'||
bc'/b/ af|ab f2|ef/e/ de|fd cd|
Bc/B/ AF|AB df|ef/e/ de|fd fa||
bc'/b/ af|ab f2|e2 a>g|fd cd|
Bc/B/ AF|AB df|ef/e/ de|fd ec||

